X: 3166
T: Becks Verandah
R: reel
M: 4/4
K: Edorian
||Beed BAFA|Beed ~B3A|Beed BAFE|DEFA BAFA|
Beed BAFA|Beed ~B3A|Beed BAFE|DEFA BAF2||
~E3D ~E2FD|~E2FA BAAF|~E3D ~E2FE|DEFA BAF2|
~E3D ~E2FD|~E2FA BAAB|edBA B2AF|DEFA FE~E2||

